img/technology-img2.svg

<svg width="80" height="85" viewBox="0 0 80 85" fill="none" xmlns="http://www.w3.org/2000/svg">
<path d="M43.7494 73.3335H26.2494C25.4444 73.3335 24.791 73.9869 24.791 74.7919C24.791 75.5969 25.4444 76.2503 26.2494 76.2503H43.7494C44.5544 76.2503 45.2078 75.5969 45.2078 74.7919C45.2078 73.9867 44.5544 73.3335 43.7494 73.3335Z" fill="#36A2F4"/>
<path d="M33.5416 58.7499C33.5416 55.5328 30.9254 52.9165 27.7082 52.9165C24.4912 52.9165 21.875 55.5328 21.875 58.7499C21.875 61.967 24.4913 64.5833 27.7084 64.5833C30.9254 64.5833 33.5416 61.967 33.5416 58.7499ZM24.7916 58.7499C24.7916 57.1428 26.1012 55.8333 27.7082 55.8333C29.3154 55.8333 30.6249 57.1429 30.6249 58.7499C30.6249 60.3569 29.3152 61.6665 27.7082 61.6665C26.1012 61.6665 24.7916 60.357 24.7916 58.7499Z" fill="#36A2F4"/>
<path d="M49.5841 20.8335H20.4174C19.6124 20.8335 18.959 21.4869 18.959 22.2919V48.5419C18.959 49.3469 19.6124 50.0003 20.4174 50.0003H49.584C50.389 50.0003 51.0424 49.3469 51.0424 48.5419V22.2919C51.0424 21.4867 50.3891 20.8335 49.5841 20.8335ZM48.1258 47.0835H21.8757V41.2501H48.1258V47.0835ZM48.1258 38.3335H21.8757V32.5001H48.1258V38.3335ZM48.1258 29.5835H21.8757V23.7501H48.1258V29.5835Z" fill="#36A2F4"/>
<path d="M43.7494 67.5H26.2494C25.4444 67.5 24.791 68.1534 24.791 68.9584C24.791 69.7634 25.4444 70.4168 26.2494 70.4168H43.7494C44.5544 70.4168 45.2078 69.7634 45.2078 68.9584C45.2078 68.1534 44.5544 67.5 43.7494 67.5Z" fill="#36A2F4"/>
<path d="M49.5834 15H20.4166C16.3975 15 13.125 18.2725 13.125 22.2916V77.7082C13.125 81.7275 16.3975 85 20.4166 85H23.3332C24.1382 85 24.7916 84.3466 24.7916 83.5416V82.0832H45.2082V83.5416C45.2082 84.3466 45.8616 85 46.6666 85H49.5832C53.6025 85 56.875 81.7275 56.875 77.7084V22.2916C56.875 18.2725 53.6025 15 49.5834 15ZM53.9584 77.7084C53.9584 80.1205 51.9955 82.0834 49.5834 82.0834H48.125V80.625C48.125 79.82 47.4716 79.1666 46.6666 79.1666H23.3334C22.5284 79.1666 21.875 79.82 21.875 80.625V82.0834H20.4166C18.0045 82.0834 16.0416 80.1205 16.0416 77.7084V22.2916C16.0416 19.8795 18.0045 17.9166 20.4166 17.9166H49.5832C51.9954 17.9166 53.9582 19.8795 53.9582 22.2916V77.7084H53.9584Z" fill="#36A2F4"/>
<path d="M42.2924 52.9165C39.0752 52.9165 36.459 55.5328 36.459 58.7499C36.459 61.967 39.0752 64.5833 42.2924 64.5833C45.5095 64.5833 48.1257 61.967 48.1257 58.7499C48.1257 55.5328 45.5095 52.9165 42.2924 52.9165ZM42.2924 61.6665C40.6854 61.6665 39.3757 60.357 39.3757 58.7499C39.3757 57.1428 40.6854 55.8333 42.2924 55.8333C43.8995 55.8333 45.209 57.1429 45.209 58.7499C45.209 60.3569 43.8995 61.6665 42.2924 61.6665Z" fill="#36A2F4"/>
</svg>

<svg width="80" height="85" fill="none" xmlns="http://www.w3.org/2000/svg"><path d="M43.75 73.334h-17.5a1.459 1.459 0 000 2.916h17.5a1.459 1.459 0 000-2.916zM33.542 58.75a5.84 5.84 0 00-5.834-5.834 5.84 5.84 0 00-5.833 5.834 5.84 5.84 0 005.833 5.833 5.84 5.84 0 005.834-5.833zm-8.75 0a2.921 2.921 0 012.916-2.917 2.921 2.921 0 012.917 2.917 2.922 2.922 0 01-2.917 2.916 2.921 2.921 0 01-2.916-2.916zM49.584 20.834H20.417c-.805 0-1.458.653-1.458 1.458v26.25c0 .805.653 1.458 1.458 1.458h29.167c.805 0 1.458-.653 1.458-1.458v-26.25c0-.805-.653-1.459-1.458-1.459zm-1.458 26.25h-26.25V41.25h26.25v5.834zm0-8.75h-26.25V32.5h26.25v5.834zm0-8.75h-26.25V23.75h26.25v5.834zM43.75 67.5h-17.5a1.459 1.459 0 000 2.917h17.5a1.459 1.459 0 000-2.917z" fill="#36A2F4"/><path d="M49.583 15H20.417c-4.02 0-7.292 3.273-7.292 7.292v55.416c0 4.02 3.273 7.292 7.292 7.292h2.916c.805 0 1.459-.653 1.459-1.458v-1.459h20.416v1.459c0 .805.654 1.458 1.459 1.458h2.916c4.02 0 7.292-3.272 7.292-7.292V22.292c0-4.02-3.273-7.292-7.292-7.292zm4.375 62.708a4.38 4.38 0 01-4.375 4.375h-1.458v-1.458c0-.805-.653-1.458-1.458-1.458H23.333c-.805 0-1.458.653-1.458 1.458v1.458h-1.458a4.38 4.38 0 01-4.375-4.375V22.292a4.38 4.38 0 014.375-4.375h29.166a4.38 4.38 0 014.375 4.375v55.416z" fill="#36A2F4"/><path d="M42.292 52.916a5.84 5.84 0 00-5.833 5.834 5.84 5.84 0 005.833 5.833 5.84 5.84 0 005.834-5.833 5.84 5.84 0 00-5.834-5.834zm0 8.75a2.921 2.921 0 01-2.916-2.916 2.921 2.921 0 012.916-2.917 2.921 2.921 0 012.917 2.917 2.921 2.921 0 01-2.917 2.916z" fill="#36A2F4"/></svg>
